X:755
T: Trip to Yorkshire
T: Turas go Yorkshire
S: B.Breathnach:"Ceol Rince na hEireann" IV/36
Z: B.Black
L: 1/8
M: 9/8
R: slipjig
K: G
G2g dBG BdB|G2g dBG F/G/AD|G2g dBG Bc/d/B|A3 D2B AFD :|
ECE DB,D G2D|ECE DB,B AFD|ECE DB,D GFE|FGA D2d AFD :|
GAB B>AB B>AB|GAB B>cB AFD|GAB B>AB B>AG|F/G/ A2 D2d AFD :|
